src/assets/media/svg/sprite/menu-list.svg

<svg xmlns="http://www.w3.org/2000/svg" width="24" height="24" viewBox="0 0 21 15"><path d="M3 0H0v3h3zm17 0H6v3h14zM0 6h3v3H0zm20 0H6v3h14zM0 12h3v3H0zm20 0H6v3h14z"/></svg>

<svg width="24" height="24" viewBox="0 0 21 15"  xmlns="http://www.w3.org/2000/svg">
  <path d="M3 0H0V3H3V0Z" />
  <path d="M20 0H6V3H20V0Z" />
  <path d="M0 6H3V9H0V6Z" />
  <path d="M20 6H6V9H20V6Z" />
  <path d="M0 12H3V15H0V12Z" />
  <path d="M20 12H6V15H20V12Z" />
</svg>
